static/assets/svg/human/humanClothes/female_shirt9_stickers/female_shirt9_sticker5.svg

<svg class="shirtOverlay" width="86" height="380" viewBox="202.715 584.407 86.593 380.048" preserveAspectRatio="xMidYMax" xmlns="http://www.w3.org/2000/svg" xmlns:xlink="http://www.w3.org/1999/xlink"><defs><pattern id="a" width="20" height="20" patternUnits="userSpaceOnUse" viewBox="0 0 100 100"><path fill="#bfac31" d="M-1.125-2.412h104.662v105.466H-1.125z"/><path d="M134.35 103.35a22.728 22.728 0 1 1-45.457 0 22.728 22.728 0 1 1 45.457 0z" transform="matrix(.30187 0 0 .24186 -8.664 3.058)" fill="#aeffb5"/><path d="M134.35 103.35a22.728 22.728 0 1 1-45.457 0 22.728 22.728 0 1 1 45.457 0z" transform="matrix(.1738 0 0 .13925 47.836 46.144)" fill="#aeffb5"/><path d="M134.35 103.35a22.728 22.728 0 1 1-45.457 0 22.728 22.728 0 1 1 45.457 0z" transform="matrix(.30187 0 0 .24186 16.494 58.529)" fill="#ffaebd"/><path d="M134.35 103.35a22.728 22.728 0 1 1-45.457 0 22.728 22.728 0 1 1 45.457 0z" transform="matrix(.22869 0 0 .18323 61.667 11.95)" fill="#ffaebd"/><path d="M134.35 103.35a22.728 22.728 0 1 1-45.457 0 22.728 22.728 0 1 1 45.457 0z" transform="matrix(.13721 0 0 .10993 4.31 57.671)" fill="#aeeaff"/><path d="M.492 163.03v30.16c5.671-2.66 9.625-8.42 9.625-15.1 0-6.67-3.956-12.4-9.625-15.06zM237.38 161.44c-9.2 0-16.66 7.45-16.66 16.65s7.46 16.69 16.66 16.69c2.53 0 4.92-.59 7.06-1.59v-30.16a16.496 16.496 0 0 0-7.06-1.59z" fill="#fbffae" transform="matrix(.41164 0 0 .3298 -.333 1.63)"/><path d="M134.35 103.35a22.728 22.728 0 1 1-45.457 0 22.728 22.728 0 1 1 45.457 0z" transform="matrix(.1738 0 0 .13925 17.898 -8.992)" fill="#fbffae"/><path d="M134.35 103.35a22.728 22.728 0 1 1-45.457 0 22.728 22.728 0 1 1 45.457 0z" transform="matrix(.3659 0 0 .29316 27.434 9.749)" fill="#c0aeff"/><path d="M134.35 103.35a22.728 22.728 0 1 1-45.457 0 22.728 22.728 0 1 1 45.457 0z" transform="matrix(.13721 0 0 .10993 77.7 88.32)" fill="#c0aeff"/><path d="M134.35 103.35a22.728 22.728 0 1 1-45.457 0 22.728 22.728 0 1 1 45.457 0z" transform="matrix(.3659 0 0 .29316 -23.088 63.054)" fill="#fff"/><path d="M134.35 103.35a22.728 22.728 0 1 1-45.457 0 22.728 22.728 0 1 1 45.457 0z" transform="matrix(.13721 0 0 .10993 38.823 16.026)" fill="#fff"/><path d="M134.35 103.35a22.728 22.728 0 1 1-45.457 0 22.728 22.728 0 1 1 45.457 0z" transform="matrix(.24698 0 0 .19788 57.757 60.409)" fill="#f0b5f9"/><path d="M134.35 103.35a22.728 22.728 0 1 1-45.457 0 22.728 22.728 0 1 1 45.457 0z" transform="matrix(.21954 0 0 .1759 -4.672 27.865)" fill="#f0b5f9"/><path d="M134.35 103.35a22.728 22.728 0 1 1-45.457 0 22.728 22.728 0 1 1 45.457 0z" transform="matrix(.21954 0 0 .1759 58.325 -8.449)" fill="#f9dcb5"/><path d="M134.35 103.35a22.728 22.728 0 1 1-45.457 0 22.728 22.728 0 1 1 45.457 0z" transform="matrix(.24698 0 0 .19788 7.442 48.582)" fill="#f9dcb5"/><path d="M134.35 103.35a22.728 22.728 0 1 1-45.457 0 22.728 22.728 0 1 1 45.457 0z" transform="matrix(.21954 0 0 .1759 -18.601 -1.286)" fill="#d7d7d7"/><path d="M134.35 103.35a22.728 22.728 0 1 1-45.457 0 22.728 22.728 0 1 1 45.457 0z" transform="matrix(.24698 0 0 .19788 18.254 32.256)" fill="#d7d7d7"/></pattern><pattern id="b" patternTransform="matrix(2.31367 0 0 3.19964 234.79 802.314)" xlink:href="#a"/><pattern id="d" patternTransform="matrix(2.33798 .56518 -.64415 2.66462 239.715 674.93)" xlink:href="#a"/><radialGradient id="e" gradientUnits="userSpaceOnUse" cx="242.6" cy="689.814" r="34.386"><stop offset="0" stop-color="#afafaf"/><stop offset="1" stop-color="#7c7c7c"/></radialGradient><linearGradient id="c" gradientUnits="userSpaceOnUse" x1="244.91" y1="730.438" x2="244.91" y2="900.3"><stop offset="0" stop-color="#adadad"/><stop offset="1" stop-color="#7a7a7a"/></linearGradient></defs><path class="clothes" fill="none" d="M202.715 584.431h86.593V700.24h-86.593z"/><path class="clothes" fill="none" d="M-403.988 499.579h1300v550h-1300z"/><path d="M236.321 730.438c0 14.246-11.165 21.885-15.276 34.217-8.495 25.486-6.977 55.819-10.387 83.097-1.865 14.925 1.059 22.957 2.444 34.828 1.069 9.163.305 16.191 1.833 17.719.188.188 18.068-41.049 19.553-43.382 17.328-27.23 65.26-66.721 36.049-95.928-3.247-3.247-3.978-18.942-7.332-18.942" fill="url(#b)" stroke-width="2" stroke="url(#c)"/><path d="M227.155 662.005c0 1.789-18.941 29.329-18.941 29.329s7.26.538 8.554 1.833c4.912 4.912 10.941 9.719 17.72 16.497.701.702 4.888 12.22 4.888 12.22s9.012-12.465 10.998-14.053c11.764-9.412 16.336-26.724 26.273-36.661 2.753-2.752-12.074-7.259-15.886-9.165-2.136-1.068-8.554-5.935-8.554-3.666" fill="url(#d)" stroke-width="2" stroke="url(#e)"/></svg>

<svg class="shirtOverlay" width="86" height="380" viewBox="202.715 584.407 86.5933 380.048" preserveAspectRatio="xMidYMax" xmlns="http://www.w3.org/2000/svg" xmlns:xlink="http://www.w3.org/1999/xlink">
  <defs id="svgEditorDefs">
    <path id="svgEditorClosePathDefs" fill="black" style="stroke-width: 0px; stroke: none;" class="clothes"/>
    <pattern id="pattern-0" x="0" y="0" width="20" height="20" patternUnits="userSpaceOnUse" viewBox="0 0 100 100">
      <rect x="-1.125" y="-2.412" width="104.662" height="105.466" style="fill: rgb(191, 172, 49);"/>
      <g transform="matrix(0.411636, 0, 0, 0.329806, -0.333329, 1.630493)">
        <g id="layer1">
          <path id="path3784" style="fill:#aeffb5" d="m134.35 103.35a22.728 22.728 0 1 1 -45.457 0 22.728 22.728 0 1 1 45.457 0z" transform="matrix(.73333 0 0 .73333 -20.237 4.3272)"/>
          <path id="path3786" style="fill:#aeffb5" d="m134.35 103.35a22.728 22.728 0 1 1 -45.457 0 22.728 22.728 0 1 1 45.457 0z" transform="matrix(.42222 0 0 .42222 117.02 134.97)"/>
          <path id="path3790" style="fill:#ffaebd" d="m134.35 103.35a22.728 22.728 0 1 1 -45.457 0 22.728 22.728 0 1 1 45.457 0z" transform="matrix(.73333 0 0 .73333 40.878 172.52)"/>
          <path id="path3792" style="fill:#ffaebd" d="m134.35 103.35a22.728 22.728 0 1 1 -45.457 0 22.728 22.728 0 1 1 45.457 0z" transform="matrix(.55556 0 0 .55556 150.62 31.287)"/>
          <path id="path3805" style="fill:#aeeaff" d="m134.35 103.35a22.728 22.728 0 1 1 -45.457 0 22.728 22.728 0 1 1 45.457 0z" transform="matrix(.33333 0 0 .33333 11.28 169.92)"/>
          <path id="path3807" style="fill:#fbffae" d="m0.4917 163.03v30.16c5.6716-2.66 9.6253-8.42 9.6253-15.1 0-6.67-3.9563-12.4-9.6253-15.06z"/>
          <path id="rect3811" style="fill:#fbffae" d="m237.38 161.44c-9.2 0-16.66 7.45-16.66 16.65s7.46 16.69 16.66 16.69c2.53 0 4.92-0.59 7.06-1.59v-30.16c-2.14-1.01-4.53-1.59-7.06-1.59z"/>
          <path id="path3820" style="fill:#fbffae" d="m134.35 103.35a22.728 22.728 0 1 1 -45.457 0 22.728 22.728 0 1 1 45.457 0z" transform="matrix(.42222 0 0 .42222 44.29 -32.209)"/>
          <path id="path3822" style="fill:#c0aeff" d="m134.35 103.35a22.728 22.728 0 1 1 -45.457 0 22.728 22.728 0 1 1 45.457 0z" transform="matrix(.88889 0 0 .88889 67.456 24.616)"/>
          <path id="path3824" style="fill:#c0aeff" d="m134.35 103.35a22.728 22.728 0 1 1 -45.457 0 22.728 22.728 0 1 1 45.457 0z" transform="matrix(.33333 0 0 .33333 189.57 262.85)"/>
          <path id="path3826" style="fill:#ffffff" d="m134.35 103.35a22.728 22.728 0 1 1 -45.457 0 22.728 22.728 0 1 1 45.457 0z" transform="matrix(.88889 0 0 .88889 -55.278 186.24)"/>
          <path id="path3828" style="fill:#ffffff" d="m134.35 103.35a22.728 22.728 0 1 1 -45.457 0 22.728 22.728 0 1 1 45.457 0z" transform="matrix(.33333 0 0 .33333 95.123 43.648)"/>
          <path id="path3830" style="fill:#f0b5f9" d="m134.35 103.35a22.728 22.728 0 1 1 -45.457 0 22.728 22.728 0 1 1 45.457 0z" transform="matrix(.6 0 0 .6 141.12 178.22)"/>
          <path id="path3832" style="fill:#f0b5f9" d="m134.35 103.35a22.728 22.728 0 1 1 -45.457 0 22.728 22.728 0 1 1 45.457 0z" transform="matrix(.53333 0 0 .53333 -10.539 79.546)"/>
          <path id="path3834" style="fill:#f9dcb5" d="m134.35 103.35a22.728 22.728 0 1 1 -45.457 0 22.728 22.728 0 1 1 45.457 0z" transform="matrix(.53333 0 0 .53333 142.5 -30.561)"/>
          <path id="path3836" style="fill:#f9dcb5" d="m134.35 103.35a22.728 22.728 0 1 1 -45.457 0 22.728 22.728 0 1 1 45.457 0z" transform="matrix(.6 0 0 .6 18.89 142.36)"/>
          <path id="path3838" style="fill:#d7d7d7" d="m134.35 103.35a22.728 22.728 0 1 1 -45.457 0 22.728 22.728 0 1 1 45.457 0z" transform="matrix(.53333 0 0 .53333 -44.379 -8.8423)"/>
          <path id="path3840" style="fill:#d7d7d7" d="m134.35 103.35a22.728 22.728 0 1 1 -45.457 0 22.728 22.728 0 1 1 45.457 0z" transform="matrix(.6 0 0 .6 45.154 92.859)"/>
        </g>
      </g>
    </pattern>
    <pattern id="pattern-0-1" patternTransform="matrix(2.313671, 0, 0, 3.199637, 234.790085, 802.313843)" xlink:href="#pattern-0"/>
    <pattern id="pattern-0-2" patternTransform="matrix(2.337979, 0.565182, -0.644147, 2.664621, 239.714685, 674.929325)" xlink:href="#pattern-0"/>
    <radialGradient id="gradient-0" gradientUnits="userSpaceOnUse" cx="242.6" cy="689.814" r="34.386">
      <stop offset="0" style="stop-color: rgba(175, 175, 175, 1)"/>
      <stop offset="1" style="stop-color: rgba(124, 124, 124, 1)"/>
    </radialGradient>
    <linearGradient id="gradient-1" gradientUnits="userSpaceOnUse" x1="244.91" y1="730.438" x2="244.91" y2="900.3">
      <stop offset="0" style="stop-color: rgba(173, 173, 173, 1)"/>
      <stop offset="1" style="stop-color: rgba(122, 122, 122, 1)"/>
    </linearGradient>
  </defs>
  <rect id="svgEditorBackground" x="202.71499633789062" y="584.4310302734375" width="86.59329986572266" height="115.80899810791016" style="fill: none; stroke: none;" class="clothes"/>
  <rect id="rect-1" x="-403.988" y="499.579" width="1300" height="550" style="fill: none; stroke: none;" class="clothes"/>
  <path d="M 236.321 730.438 C 236.321 744.684 225.156 752.323 221.045 764.655 C 212.55 790.141 214.068 820.474 210.658 847.752 C 208.793 862.677 211.717 870.709 213.102 882.58 C 214.171 891.743 213.407 898.771 214.935 900.299 C 215.123 900.487 233.003 859.25 234.488 856.917 C 251.816 829.687 299.748 790.196 270.537 760.989 C 267.29 757.742 266.559 742.047 263.205 742.047" style="fill: url(#pattern-0-1); stroke-width: 2; stroke: url(#gradient-1);"/>
  <path d="M 227.155 662.005 C 227.155 663.794 208.214 691.334 208.214 691.334 C 208.214 691.334 215.474 691.872 216.768 693.167 C 221.68 698.079 227.709 702.886 234.488 709.664 C 235.189 710.366 239.376 721.884 239.376 721.884 C 239.376 721.884 248.388 709.419 250.374 707.831 C 262.138 698.419 266.71 681.107 276.647 671.17 C 279.4 668.418 264.573 663.911 260.761 662.005 C 258.625 660.937 252.207 656.07 252.207 658.339" style="fill: url(#pattern-0-2); stroke-width: 2; stroke: url(#gradient-0);"/>
</svg>
